X: 26
T: 23. THE WIND THAT SHOOK THE BARLEY
B: Sam Bayard, "Hill Country Tunes" 1944 #23
N: Whistled and sung by F.P.Provance (as he formerly played it on the violin), Point Marion, PA, Oct
N: 16 1943.  Learned from fiddlers playing it in eastern Fayett and Western Somerset Counties, PA.
R: hornpipe, reel
M: 4/4
L: 1/8
Z: 2010 John Chambers <jc:trillian.mit.edu>
K: D
A2A>B A>GE>F | G>FG>A B>cd>B |\
| A2A>B A>GF>f |1 g>fe>d B>c d>B :|2 g>fe>d B>cd>e ||
|: f2f>e f2f>e | "a."f>ef>d B>cd>e |\
f2f>e f2f>g |1a>fe>d B>cd>e :|2 a>fe>c B>c!D.C.!d>B |]
P: VAR:
"a."f2 |] y8 y8 y8 y8 y8 y8 y8 y8 y8 y8

%%sep 2 1 500
%%sep 1 1 500

